X:1
T:Title
%%score 1 ( 2 3 )
L:1/8
Q:1/4=100
M:4/4
K:E
V:1 treble nm="Strings 1, Treble"
V:2 bass nm="Strings 1, Bass"
V:3 bass 
V:1
 z4 z2 [B,G]>[B,A] | [EB]2 B,2 [B,E]2 [EG]2 | [EG]>[DF] [DF]>[=D^E] [^DF]2 [DF]>[=EG] | %3
 [FA]2 B,2 [DF]2 [FA]2 | [FA]>[EG] [EG]>[E=G] [E^G]2 [B,G]>[B,A] | [EB]2 B,2 [B,E]2 [EG]2 | %6
 [EG]>[DF] [DF]>[=D^E] [^DF]2 [DA]>[Dc] | [Ec]>[EB] [EB]>[EG] [GB]2 [EG]>E | [DF]4 E2 [GB]2 | %9
 [FB]3 [FA] [DF]2 [FA]2 | [EG]3 [B,F] [B,E]2 E2 | [DF]3 [EF] [EG]2 [E^A]2 | [DB]6 [FA]2 | %13
 [EG]3 [EG] [EG]2 [Ee]2 | [Ee]3 [Ec] [EB]2 [EA]2 | [EG]3 [DF] E2 [B,D]2 | [B,E]6 z2 |] %17
V:2
 z4 z2 E,>[E,F,] | [E,G,]2 [E,G,]2 [E,G,]2 [E,B,]2 | %2
w: 1.~There's~ a~|fact~ no~ mor tal~|
 [B,,B,]>[B,,B,] [B,,B,]>[B,,B,] [B,,B,]2 [B,,B,]>[B,,B,] | [B,,B,]2 [D,B,]2 [B,,B,]2 [D,B,]2 | %4
w: ev er~ can~ de ny~ There's~ a~|cri sis~ we~ must~|
 [E,B,]>[E,B,] [E,B,]>[E,^A,] [E,B,]2 E,>[E,F,] | [E,G,]2 [E,G,]2 [E,G,]2 [E,B,]2 | %6
w: sure ly,~ sure ly~ meet;~ All~ that~|live~ up on~ this~|
 [B,,B,]>[B,,B,] [B,,B,]>[B,,B,] [B,,B,]2 [B,,B,]>[B,,B,] | %7
w: earth~ must~ short ly~ die,~ And~ must~|
 [E,A,]>[E,G,] [E,G,]>[E,B,] [E,B,]2 [E,B,]>[G,,B,] | B,2 A,2 [E,G,]2 B,E | %9
w: an swer~ at~ the~ great~ fi nal~|judg * ment.~ * *|
 [B,,D]3 [B,,D] [B,,B,]2 [D,B,]2 | [E,B,]3 [E,A,] [E,G,]2 [G,B,]2 | %11
w: ||
 [F,B,]3 [F,^A,] [F,A,]2 [F,C]2 | [B,,B,]6 [D,B,]2 | [E,B,]3 [E,B,] [E,B,]2 [G,B,]2 | %14
w: |||
 [A,C]3 [A,E] [G,E]2 [A,C]2 | B,3 [B,,A,] [B,,G,]2 [B,,A,]2 | [E,G,]6 z2 |] %17
w: |||
V:3
 x8 | x8 | x8 | x8 | x8 | x8 | x8 | x8 | B,,4 z2 E,2 | x8 | x8 | x8 | x8 | x8 | x8 | x8 | x8 |] %17

